!!!COM: Bach, Johann Sebastian
!!!CDT: 1685/3//-1750/7/28/
!!!OTL@@DE: Ich dank' dir, Gott, fuer all' Wohltat
!!!AGN: 4-Part Chorale
!!!SCT: Erk 223
!!!SCT: BWV 346
!!!YEC: Copyright 1994, David Huron
!!!YEC: Changes/Additions 2001 by Craig Stuart Sapp
!!!YEN: United States of America
!!!SMA: 371 Bach Chorales, edited by Ludwig Erk, C.F. Peters
!!!PDT: 1850, 1865
!!!ONB: Harmony and Root analysis done manually
**kern	**kern	**kern	**kern	**root	**harm	**kern
!bass	!tenor	!alto	!soprno	!	!	!
*Iorgan	*Iorgan	*Iorgan	*Iorgan	*Iorgan	*	*Iorgan
*M4/4	*M4/4	*M4/4	*M4/4	*M4/4	*M4/4	*M4/4
*met(C)	*met(C)	*met(C)	*met(C)	*met(C)	*met(C)	*met(C)
*MM60	*MM60	*MM60	*MM60	*MM60	*MM60	*MM60
*k[]	*k[]	*k[]	*k[]	*k[]	*k[]	*k[]
*C:	*C:	*C:	*C:	*C:	*C:	*C:
4C	8E	4c	4g	4CC;	I;	4C; 4e; 4g;
.	8F	.	.	.	.	.
=1	=1	=1	=1	=1	=1	=1
4BB-	4G	4c	4e	4CC	V7d/IV	4c 4e 4g 4B-
4AA	4A	4c	4f#	4FF#	viib/V	4f# 4A 4cc#
4GG;	4D;	4B;	4g;	4GG;	V;	4G; 4b; 4dd;
4BBn	4G	[4d	4g	4GG	Vb	4g 4B 4dd
=2	=2	=2	=2	=2	=2	=2
4C	[4G	8d]	4e	4CC	I	4C 4e 4g
.	.	4c	.	.	.	.
4GG	8.G]	.	4d	4GG	V	4G 4b 4dd
.	.	8B	.	.	.	.
.	16F	.	.	.	.	.
4CC;	4E;	4G;	4c;	4CC;	I;	4C; 4e; 4g;
4C	4E	4G	4c	4CC	I	4C 4e 4g
=3	=3	=3	=3	=3	=3	=3
4BB	4G	4d	4g	4GG	Vb	4g 4B 4dd
8C	4c	[4e	4g	4CC	I	4C 4e 4g
8BB	.	.	.	.	.	.
4AA	4c	8e]	4a	4FF#	viib/V	4f# 4A 4cc#
.	.	8f#	.	.	.	.
4GG	4d	[4g	4b	4GG	V	4G 4b 4dd
=4	=4	=4	=4	=4	=4	=4
4E	4c	8g]	4cc	4CC	Ib	4c 4E 4g
.	.	8f#	.	.	.	.
4D	4d	[4g	4b	4GG	Ic/V	4g 4b 4D
4C	4e	4g_	4a	4AA	ii7b/V	4a 4C 4ee 4gg
4D	8.d	8g]	4a	4DD	V/V	4D 4f# 4a
.	.	8f#	.	.	.	.
.	16c	.	.	.	.	.
=5	=5	=5	=5	=5	=5	=5
2GG;	2B;	2d;	2g;	2GG;	V;	2G; 2b; 2dd;
4r	4r	4r	4r	4r	r	4r
4E	4c	[4e	4g	4CC	Ib	4c 4E 4g
=6	=6	=6	=6	=6	=6	=6
4F	4c	8e]	4a	4DD	ii7b	4d 4F 4a 4cc
.	.	[8d	.	.	.	.
4GG#	4B	8d]	4b	4EE	V7b/vi	4e 4G# 4b 4dd
.	.	8e	.	.	.	.
4AA;	4A;	4e;	4cc;	4AA;	vi;	4A; 4cc; 4ee;
4C	4E	[4c	4g	4CC	I	4C 4e 4g
=7	=7	=7	=7	=7	=7	=7
4.F	4F	8c]	4a	4FF	IV	4F 4a 4cc
.	.	8B	.	.	.	.
.	4G	8c	4g	8CC	Ib	8c 8E 8g
8E	.	8c#	.	8CC#	viib/ii	8c# 8E 8g#
8D	4A	8d	4f	4DD	ii	4D 4f 4a
8E	.	8c#	.	.	.	.
8F	4A	[4d	4f	4DD	iib	4d 4F 4a
8D	.	.	.	.	.	.
=8	=8	=8	=8	=8	=8	=8
2A;	2A;	4d]	2e;	2AA;	VI;	2A; 2cc#; 2ee;
.	.	4c#;	.	.	.	.
4r	4r	4r	4r	4r	r	4r
4E	4c	[4g	4ccn	4CC	Ib	4c 4E 4g
=9	=9	=9	=9	=9	=9	=9
8F	4c	8g]	4a	4FF	IV	4F 4a 4cc
8E	.	16f	.	.	.	.
.	.	16e	.	.	.	.
4D	4d	4f	4b	4BB	viib	4b 4D 4ff#
4C;	4G;	4e;	4cc;	4CC;	I;	4C; 4e; 4g;
[4D	8d	4f	4a	4DD	ii	4D 4f 4a
.	8c	.	.	.	.	.
=10	=10	=10	=10	=10	=10	=10
8D]	4B-	[4e	4g	4CC#	viioD7/ii	4C# 4e 4g 4b-
8C#	.	.	.	.	.	.
4D	4A	8e]	4f	4DD	ii	4D 4f 4a
.	.	[8d	.	.	.	.
4AA;	4A;	8d]	4e;	4AA;	VI;	4A; 4cc#; 4ee;
.	.	8c#;	.	.	.	.
4BBn	[4G	4d	4g	4GG	Vb	4g 4B 4dd
=11	=11	=11	=11	=11	=11	=11
4C#	8G]	4e	4e	4AA	V7b/ii	4a 4C# 4ee 4gg
.	[8A	.	.	.	.	.
4D#	8A]	4B	4f#	4AA	V7b/ii	4a 4C# 4ee 4gg
.	16G	.	.	.	.	.
.	16F#	.	.	.	.	.
4E;	4E;	4B;	4g;	4EE;	iii;	4E; 4g; 4b;
8E	8e	8g	4cc	8CC	Ib	8c 8E 8g
8F#	8d	[8a	.	8DD	V7b/V	8d 8F# 8a 8cc
=12	=12	=12	=12	=12	=12	=12
4G	4d	8a]	4b	4GG	V	4G 4b 4dd
.	.	4g	.	.	.	.
4D	8.d	.	4a	4DD	V/V	4D 4f# 4a
.	.	8f#	.	.	.	.
.	16c	.	.	.	.	.
4GG;	4B;	4d;	4g;	4GG;	V;	4G; 4b; 4dd;
4BB	4G	4d	4g	4GG	Vb	4g 4B 4dd
=13	=13	=13	=13	=13	=13	=13
8C	4G	4c	8e	4CC	I	4C 4e 4g
8D	.	.	8f	.	.	.
8E	8c	4c	4g	8CC	Ib	8c 8E 8g
8C	8B-	.	.	8CC	V7/IV	8C 8e 8g 8b-
4F	8.A	8c	4a	4FF	IV	4F 4a 4cc
.	.	4f	.	.	.	.
.	16Bn	.	.	.	.	.
[4C	8.c	.	4g	4CC	V/IV	4C 4e 4g
.	.	8e	.	.	.	.
.	16B-	.	.	.	.	.
=14	=14	=14	=14	=14	=14	=14
8C]	8A	4.d	4f	8DD	ii7d	8d 8f 8a 8C
8BB	8G	.	.	8GG	V7b	8g 8B 8dd 8ff
4C	4G	.	4e	4CC	I	4C 4e 4g
.	.	[8c	.	.	.	.
4FF	8A	8c]	4d	8DD	ii7b	8d 8F 8a 8cc
.	8D	16B	.	8BB	viic	8b 8dd 8F#
.	.	16A	.	.	.	.
4GG	8G	4B	4d	4GG	V	4G 4b 4dd
.	8F	.	.	.	.	.
=15	=15	=15	=15	=15	=15	=15
1CC;	1E;	1G;	1c;	1CC;	I;	1C; 1e; 1g;
==	==	==	==	==	==	==
*-	*-	*-	*-	*-	*-	*-
